Origami/64x64/apps/rhythmbox.svg

<svg width="64" height="64" version="1" xmlns="http://www.w3.org/2000/svg">
 <rect transform="scale(-1,1)" x="-54" y="5" width="44" height="56" rx="2.75" ry="2.8" style="opacity:.2"/>
 <rect transform="scale(-1,1)" x="-54" y="4" width="44" height="56" rx="2.75" ry="2.8" style="fill:#cccccc"/>
 <circle transform="rotate(-90)" cx="-38" cy="32" r="18" style="fill:#3f3f3f"/>
 <circle transform="matrix(0,-1,-1,0,0,0)" cx="-39" cy="-32" r="14" style="opacity:.2"/>
 <circle transform="matrix(0,-1,-1,0,0,0)" cx="-38" cy="-32" r="14" style="fill:#fec006"/>
 <circle transform="matrix(0,-1,-1,0,0,0)" cx="-38" cy="-32" r="6" style="fill:#3f3f3f"/>
 <circle transform="rotate(90)" cx="13" cy="-18" r="3" style="fill:#3f3f3f"/>
 <circle transform="rotate(90)" cx="13" cy="-46" r="3" style="fill:#3f3f3f"/>
 <path d="m12.75 4c-1.5235 0-2.75 1.2495812-2.75 2.8007812v1c0-1.5511999 1.2265-2.8007812 2.75-2.8007812h38.5c1.5235 0 2.75 1.2495812 2.75 2.8007812v-1c0-1.5511999-1.2265-2.8007812-2.75-2.8007812h-38.5z" style="fill:#ffffff;opacity:.1"/>
</svg>

<svg xmlns="http://www.w3.org/2000/svg" width="64" height="64" version="1">
 <rect style="opacity:0.2" width="44" height="56" x="-54" y="5" rx="2.75" ry="2.8" transform="scale(-1,1)"/>
 <rect style="fill:#cccccc" width="44" height="56" x="-54" y="4" rx="2.75" ry="2.8" transform="scale(-1,1)"/>
 <circle style="fill:#3f3f3f" cx="-38" cy="32" r="18" transform="rotate(-90)"/>
 <circle style="opacity:0.2" cx="-39" cy="-32" r="14" transform="matrix(0,-1,-1,0,0,0)"/>
 <circle style="fill:#fec006" cx="-38" cy="-32" r="14" transform="matrix(0,-1,-1,0,0,0)"/>
 <circle style="fill:#3f3f3f" cx="-38" cy="-32" r="6" transform="matrix(0,-1,-1,0,0,0)"/>
 <circle style="fill:#3f3f3f" cx="13" cy="-18" r="3" transform="rotate(90)"/>
 <circle style="fill:#3f3f3f" cx="13" cy="-46" r="3" transform="rotate(90)"/>
 <path style="opacity:0.1;fill:#ffffff" d="M 12.75 4 C 11.2265 4 10 5.2495812 10 6.8007812 L 10 7.8007812 C 10 6.2495813 11.2265 5 12.75 5 L 51.25 5 C 52.7735 5 54 6.2495812 54 7.8007812 L 54 6.8007812 C 54 5.2495813 52.7735 4 51.25 4 L 12.75 4 z"/>
</svg>
